gama.ui.shared/icons_svg/light/generic/menu.update.svg

<svg height="25" viewBox="-318.133 -3657.378 25 25" width="25" xmlns="http://www.w3.org/2000/svg"><g fill="none"><path d="m-313.793-3656.8784h16.32c2.12077 0 3.84 1.7194 3.84 3.84v16.32c0 2.1208-1.71923 3.84-3.84 3.84h-16.32c-2.12078 0-3.84-1.7192-3.84-3.84v-16.32c0-2.1206 1.71922-3.84 3.84-3.84z" fill="#fff"/><path d="m-313.793-3656.8784h16.32c2.12077 0 3.84 1.7194 3.84 3.84v16.32c0 2.1208-1.71923 3.84-3.84 3.84h-16.32c-2.12078 0-3.84-1.7192-3.84-3.84v-16.32c0-2.1206 1.71922-3.84 3.84-3.84z" stroke="#000" stroke-linecap="round" stroke-linejoin="round" stroke-width=".25"/><path d="m-313.633-3650.773c0-1.162.94316-2.1054 2.10526-2.1054h11.78947c1.16211 0 2.10527.9434 2.10527 2.1054v11.7894c0 1.1621-.94316 2.1052-2.10527 2.1052h-11.78947c-1.1621 0-2.10526-.9431-2.10526-2.1052zm.8421 0v11.7894c0 .6989.5642 1.2631 1.26316 1.2631h11.78947c.69895 0 1.26317-.5642 1.26317-1.2631v-11.7894c0-.699-.56422-1.2633-1.26317-1.2633h-11.78947c-.69896 0-1.26316.5643-1.26316 1.2633z" fill="#518737"/><path d="m-302.87932-3641.771c1.03579-.8253 1.65052-2.08 1.65052-3.444 0-2.333-1.81894-4.2613-4.13473-4.4044-.15157-.0086-.26947-.1432-.26105-.2946.00842-.1517.14316-.2696.29474-.261 2.61052.16 4.65684 2.324 4.65684 4.9514 0 1.5242-.69053 2.9306-1.8442 3.8566h1.5663c.15158 0 .2779.1265.2779.278 0 .1517-.12632.278-.2779.278h-2.2063c-.1516 0-.2779-.1263-.2779-.278v-2.206c0-.152.1263-.278.2779-.278.15157 0 .27788.126.27788.278v1.5156zm-5.50738-6.8884c-1.03578.8254-1.6505 2.08-1.6505 3.4444 0 2.341 1.82736 4.2693 4.16 4.404.15157.0084.26946.1347.26104.2947-.00842.1516-.13474.2693-.29474.2613-2.61894-.152-4.67368-2.316-4.67368-4.952 0-1.524.69052-2.9303 1.84421-3.8566h-1.56633c-.15157 0-.27788-.1264-.27788-.2779s.12631-.2779.27788-.2779h2.20633c.15157 0 .27789.1264.27789.2779v2.2065c0 .1514-.12632.2777-.27789.2777-.15158 0-.2779-.1263-.2779-.2777v-1.516z" fill="#518737"/><path d="m-302.87932-3641.771c1.03579-.8253 1.65052-2.08 1.65052-3.444 0-2.333-1.81894-4.2613-4.13473-4.4044-.15157-.0086-.26947-.1432-.26105-.2946.00842-.1517.14316-.2696.29474-.261 2.61052.16 4.65684 2.324 4.65684 4.9514 0 1.5242-.69053 2.9306-1.8442 3.8566h1.5663c.15158 0 .2779.1265.2779.278 0 .1517-.12632.278-.2779.278h-2.2063c-.1516 0-.2779-.1263-.2779-.278v-2.206c0-.152.1263-.278.2779-.278.15157 0 .27788.126.27788.278v1.5156zm-5.50738-6.8884c-1.03578.8254-1.6505 2.08-1.6505 3.4444 0 2.341 1.82736 4.2693 4.16 4.404.15157.0084.26946.1347.26104.2947-.00842.1516-.13474.2693-.29474.2613-2.61894-.152-4.67368-2.316-4.67368-4.952 0-1.524.69052-2.9303 1.84421-3.8566h-1.56633c-.15157 0-.27788-.1264-.27788-.2779s.12631-.2779.27788-.2779h2.20633c.15157 0 .27789.1264.27789.2779v2.2065c0 .1514-.12632.2777-.27789.2777-.15158 0-.2779-.1263-.2779-.2777v-1.516z" stroke="#518737" stroke-linejoin="round" stroke-width=".25"/></g></svg>

<?xml version="1.0" encoding="UTF-8" standalone="no"?>
<!DOCTYPE svg PUBLIC "-//W3C//DTD SVG 1.1//EN" "http://www.w3.org/Graphics/SVG/1.1/DTD/svg11.dtd">
<svg version="1.1" xmlns="http://www.w3.org/2000/svg" xmlns:xl="http://www.w3.org/1999/xlink" xmlns:dc="http://purl.org/dc/elements/1.1/" viewBox="-318.133 -3657.3784 25 25" width="25" height="25">
  <defs/>
  <g id="SOURCES" stroke-dasharray="none" fill="none" stroke="none" fill-opacity="1" stroke-opacity="1">
    <title>SOURCES</title>
    <g id="SOURCES_Calque_2">
      <title>Calque 2</title>
      <g id="Graphic_9255">
        <path d="M -313.793 -3656.8784 L -297.473 -3656.8784 C -295.35223 -3656.8784 -293.633 -3655.159 -293.633 -3653.0384 L -293.633 -3636.7184 C -293.633 -3634.5976 -295.35223 -3632.8784 -297.473 -3632.8784 L -313.793 -3632.8784 C -315.91378 -3632.8784 -317.633 -3634.5976 -317.633 -3636.7184 L -317.633 -3653.0384 C -317.633 -3655.159 -315.91378 -3656.8784 -313.793 -3656.8784 Z" fill="white"/>
        <path d="M -313.793 -3656.8784 L -297.473 -3656.8784 C -295.35223 -3656.8784 -293.633 -3655.159 -293.633 -3653.0384 L -293.633 -3636.7184 C -293.633 -3634.5976 -295.35223 -3632.8784 -297.473 -3632.8784 L -313.793 -3632.8784 C -315.91378 -3632.8784 -317.633 -3634.5976 -317.633 -3636.7184 L -317.633 -3653.0384 C -317.633 -3655.159 -315.91378 -3656.8784 -313.793 -3656.8784 Z" stroke="black" stroke-linecap="round" stroke-linejoin="round" stroke-width=".25"/>
      </g>
      <g id="Group_9304">
        <g id="Group_9302">
          <title>plus-square</title>
          <g id="Graphic_9303">
            <path d="M -313.633 -3650.773 C -313.633 -3651.935 -312.68984 -3652.8784 -311.52774 -3652.8784 L -299.73827 -3652.8784 C -298.57616 -3652.8784 -297.633 -3651.935 -297.633 -3650.773 L -297.633 -3638.9836 C -297.633 -3637.8215 -298.57616 -3636.8784 -299.73827 -3636.8784 L -311.52774 -3636.8784 C -312.68984 -3636.8784 -313.633 -3637.8215 -313.633 -3638.9836 Z M -312.7909 -3650.773 L -312.7909 -3638.9836 C -312.7909 -3638.2847 -312.2267 -3637.7205 -311.52774 -3637.7205 L -299.73827 -3637.7205 C -299.03932 -3637.7205 -298.4751 -3638.2847 -298.4751 -3638.9836 L -298.4751 -3650.773 C -298.4751 -3651.472 -299.03932 -3652.0363 -299.73827 -3652.0363 L -311.52774 -3652.0363 C -312.2267 -3652.0363 -312.7909 -3651.472 -312.7909 -3650.773 Z" fill="#518737"/>
          </g>
        </g>
        <g id="Group_9300">
          <title>refresh-double</title>
          <g id="Graphic_9301">
            <path d="M -302.87932 -3641.771 C -301.84353 -3642.5963 -301.2288 -3643.851 -301.2288 -3645.215 C -301.2288 -3647.548 -303.04774 -3649.4763 -305.36353 -3649.6194 C -305.5151 -3649.628 -305.633 -3649.7626 -305.62458 -3649.914 C -305.61616 -3650.0657 -305.48142 -3650.1836 -305.32984 -3650.175 C -302.71932 -3650.015 -300.673 -3647.851 -300.673 -3645.2236 C -300.673 -3643.6994 -301.36353 -3642.293 -302.5172 -3641.367 L -300.9509 -3641.367 C -300.79932 -3641.367 -300.673 -3641.2405 -300.673 -3641.089 C -300.673 -3640.9373 -300.79932 -3640.811 -300.9509 -3640.811 L -303.1572 -3640.811 C -303.3088 -3640.811 -303.4351 -3640.9373 -303.4351 -3641.089 L -303.4351 -3643.295 C -303.4351 -3643.447 -303.3088 -3643.573 -303.1572 -3643.573 C -303.00563 -3643.573 -302.87932 -3643.447 -302.87932 -3643.295 L -302.87932 -3641.7794 Z M -308.3867 -3648.6594 C -309.42248 -3647.834 -310.0372 -3646.5794 -310.0372 -3645.215 C -310.0372 -3642.874 -308.20984 -3640.9457 -305.8772 -3640.811 C -305.72563 -3640.8026 -305.60774 -3640.6763 -305.61616 -3640.5163 C -305.62458 -3640.3647 -305.7509 -3640.247 -305.9109 -3640.255 C -308.52984 -3640.407 -310.58458 -3642.571 -310.58458 -3645.207 C -310.58458 -3646.731 -309.89406 -3648.1373 -308.74037 -3649.0636 L -310.3067 -3649.0636 C -310.45827 -3649.0636 -310.58458 -3649.19 -310.58458 -3649.3415 C -310.58458 -3649.493 -310.45827 -3649.6194 -310.3067 -3649.6194 L -308.10037 -3649.6194 C -307.9488 -3649.6194 -307.82248 -3649.493 -307.82248 -3649.3415 L -307.82248 -3647.135 C -307.82248 -3646.9836 -307.9488 -3646.8573 -308.10037 -3646.8573 C -308.25195 -3646.8573 -308.37827 -3646.9836 -308.37827 -3647.135 L -308.37827 -3648.651 Z" fill="#518737"/>
            <path d="M -302.87932 -3641.771 C -301.84353 -3642.5963 -301.2288 -3643.851 -301.2288 -3645.215 C -301.2288 -3647.548 -303.04774 -3649.4763 -305.36353 -3649.6194 C -305.5151 -3649.628 -305.633 -3649.7626 -305.62458 -3649.914 C -305.61616 -3650.0657 -305.48142 -3650.1836 -305.32984 -3650.175 C -302.71932 -3650.015 -300.673 -3647.851 -300.673 -3645.2236 C -300.673 -3643.6994 -301.36353 -3642.293 -302.5172 -3641.367 L -300.9509 -3641.367 C -300.79932 -3641.367 -300.673 -3641.2405 -300.673 -3641.089 C -300.673 -3640.9373 -300.79932 -3640.811 -300.9509 -3640.811 L -303.1572 -3640.811 C -303.3088 -3640.811 -303.4351 -3640.9373 -303.4351 -3641.089 L -303.4351 -3643.295 C -303.4351 -3643.447 -303.3088 -3643.573 -303.1572 -3643.573 C -303.00563 -3643.573 -302.87932 -3643.447 -302.87932 -3643.295 L -302.87932 -3641.7794 Z M -308.3867 -3648.6594 C -309.42248 -3647.834 -310.0372 -3646.5794 -310.0372 -3645.215 C -310.0372 -3642.874 -308.20984 -3640.9457 -305.8772 -3640.811 C -305.72563 -3640.8026 -305.60774 -3640.6763 -305.61616 -3640.5163 C -305.62458 -3640.3647 -305.7509 -3640.247 -305.9109 -3640.255 C -308.52984 -3640.407 -310.58458 -3642.571 -310.58458 -3645.207 C -310.58458 -3646.731 -309.89406 -3648.1373 -308.74037 -3649.0636 L -310.3067 -3649.0636 C -310.45827 -3649.0636 -310.58458 -3649.19 -310.58458 -3649.3415 C -310.58458 -3649.493 -310.45827 -3649.6194 -310.3067 -3649.6194 L -308.10037 -3649.6194 C -307.9488 -3649.6194 -307.82248 -3649.493 -307.82248 -3649.3415 L -307.82248 -3647.135 C -307.82248 -3646.9836 -307.9488 -3646.8573 -308.10037 -3646.8573 C -308.25195 -3646.8573 -308.37827 -3646.9836 -308.37827 -3647.135 L -308.37827 -3648.651 Z" stroke="#518737" stroke-linecap="butt" stroke-linejoin="round" stroke-width=".25"/>
          </g>
        </g>
      </g>
    </g>
  </g>
</svg>
